icons/desktop/16/svg/notifications-slash-16.svg

<svg width="16" height="16" viewBox="0 0 16 16" fill="none" xmlns="http://www.w3.org/2000/svg">
<path fill-rule="evenodd" clip-rule="evenodd" d="M0.219727 0.21967C0.51262 -0.0732233 0.98738 -0.0732233 1.28027 0.21967L15.7803 14.7197C16.0732 15.0126 16.0732 15.4873 15.7803 15.7802C15.4874 16.0731 15.0126 16.0731 14.7197 15.7802L13 14.0605V14.2499C13 14.9589 12.5953 15.5744 11.9453 15.8554C11.7164 15.9544 11.4771 16.0028 11.2422 16.0029C10.8102 16.0029 10.3867 15.8383 10.0518 15.5244L7.35742 12.9941C5.71442 12.9761 4.07454 12.8818 2.47754 12.7158C1.06378 12.5685 0 11.3904 0 9.97553V4.02729C0 3.21225 0.351641 2.47993 0.916016 1.97651L0.219727 1.28022C-0.0731667 0.987324 -0.0731667 0.512563 0.219727 0.21967ZM1.97559 3.03608C1.68401 3.26552 1.5 3.62514 1.5 4.02631V9.97455C1.5 10.6185 1.98692 11.1555 2.63281 11.2226C4.27581 11.3926 5.96913 11.485 7.66113 11.496C7.85008 11.4971 8.03095 11.5702 8.16992 11.6992L11.0791 14.4287C11.183 14.5266 11.2945 14.5005 11.3496 14.4765C11.4056 14.4525 11.5 14.391 11.5 14.248V12.5605L8.43945 9.49994H4.25C3.836 9.49994 3.5 9.16394 3.5 8.74994C3.5 8.33594 3.836 7.99994 4.25 7.99994H6.93945L4.93945 5.99994H4.25C3.836 5.99994 3.5 5.66394 3.5 5.24994C3.5 5.05837 3.57308 4.8845 3.69141 4.7519L1.97559 3.03608Z" fill="black"/>
<path d="M3.99707 1.16596C7.15805 0.928964 10.3725 0.956125 13.5225 1.28412C14.9352 1.43133 15.999 2.60951 15.999 4.02436V9.9726C15.999 10.8456 15.5959 11.6258 14.9609 12.1308L13.8789 11.0488C14.2499 10.8318 14.5 10.4346 14.5 9.97358V4.02533C14.5 3.3814 14.0141 2.84437 13.3682 2.77729C11.5932 2.59429 9.787 2.49994 8 2.49994C7.13514 2.49994 6.2653 2.52532 5.39844 2.5683L3.99707 1.16596Z" fill="black"/>
<path d="M11.75 4.49994C12.164 4.49994 12.5 4.83594 12.5 5.24994C12.5 5.66394 12.164 5.99994 11.75 5.99994H8.83008L7.33008 4.49994H11.75Z" fill="black"/>
</svg>

<!-- This Source Code Form is subject to the terms of the Mozilla Public
   - License, v. 2.0. If a copy of the MPL was not distributed with this
   - file, You can obtain one at http://mozilla.org/MPL/2.0/. -->
<svg xmlns="http://www.w3.org/2000/svg" width="16" height="16" fill="context-fill" fill-opacity="context-fill-opacity" viewBox="0 0 16 16">
    <path fill-rule="evenodd" d="M.22.22a.75.75 0 0 1 1.06 0l14.5 14.5a.75.75 0 1 1-1.06 1.06L13 14.06v.19c0 .709-.405 1.324-1.055 1.605a1.737 1.737 0 0 1-1.893-.331l-2.695-2.53a53 53 0 0 1-4.88-.278A2.75 2.75 0 0 1 0 9.976V4.027c0-.815.352-1.547.916-2.05L.22 1.28a.75.75 0 0 1 0-1.06m1.756 2.816c-.292.23-.476.59-.476.99v5.949c0 .643.487 1.18 1.133 1.248 1.643.17 3.336.262 5.028.273.19.001.37.074.509.203l2.91 2.73a.24.24 0 0 0 .27.047.24.24 0 0 0 .15-.228v-1.687L8.44 9.5H4.25a.75.75 0 0 1 0-1.5h2.69l-2-2h-.69a.75.75 0 0 1-.559-1.248z" clip-rule="evenodd" />
    <path d="M3.997 1.166a53.6 53.6 0 0 1 9.526.118 2.75 2.75 0 0 1 2.476 2.74v5.949a2.75 2.75 0 0 1-1.038 2.158l-1.082-1.082c.37-.217.621-.614.621-1.075V4.025c0-.644-.486-1.18-1.132-1.248A53 53 0 0 0 8 2.5c-.865 0-1.735.025-2.602.068z" />
    <path d="M11.75 4.5a.75.75 0 0 1 0 1.5H8.83l-1.5-1.5z" />
</svg>
